icons/op-merge-branch-24.svg

<svg width="24" height="24" viewBox="0 0 24 24" fill="none" xmlns="http://www.w3.org/2000/svg">
<path d="M11.1689 6.76331L14.7171 9.52407L14.7016 7.39802C15.5165 7.42379 16.005 7.78183 16.0755 8.55666C16.146 9.33149 16.2417 15.7019 16.2417 15.7019C15.2071 16.0567 14.5613 16.6627 14.5659 17.8212C14.5705 18.9796 15.6436 19.9421 16.8233 19.9475C18.0029 19.9528 18.9757 18.912 18.9991 17.8872C19.0224 16.8624 18.5485 16.0895 17.4522 15.7317C17.4522 15.7317 17.4102 8.67632 17.1756 7.64743C16.941 6.61854 15.7623 6.1422 14.6907 6.11395L14.6749 4.00003L11.1689 6.76331ZM5.01227 6.71795C5.01759 7.75113 5.62379 8.67628 6.67614 8.96865L6.63052 15.6707C5.59856 16.0339 4.993 16.6077 4.99995 17.8821C5.0069 19.1564 6.29319 20.0084 7.31077 20C8.32835 19.9916 9.40934 19.0004 9.42296 17.9075C9.43659 16.8146 8.98392 16.0685 7.86616 15.6985C7.88027 13.4544 7.87793 11.2102 7.89044 8.96612C8.68374 8.71457 9.42908 7.88856 9.43826 6.78142C9.44744 5.67429 8.41534 4.65857 7.2214 4.64394C6.02747 4.62931 5.00696 5.68478 5.01227 6.71795ZM7.30957 5.84588C7.83932 5.86232 8.2365 6.32363 8.23474 6.82207C8.23299 7.3205 7.88274 7.84619 7.2762 7.84456C6.66966 7.84292 6.24158 7.37713 6.24007 6.82722C6.23855 6.2773 6.77983 5.82944 7.30957 5.84588ZM8.20732 17.8752C8.18911 18.399 7.71376 18.808 7.2285 18.8055C6.74324 18.803 6.20656 18.417 6.20747 17.8597C6.20838 17.3024 6.62193 16.807 7.22563 16.8054C7.82934 16.8038 8.22552 17.3514 8.20732 17.8752ZM17.8544 17.8489C17.8475 18.4304 17.3836 18.8474 16.8337 18.8385C16.2839 18.8297 15.8025 18.3578 15.8122 17.8069C15.8219 17.2559 16.2929 16.8414 16.8645 16.8413C17.4361 16.8411 17.8614 17.2673 17.8544 17.8489Z" fill="black"/>
</svg>

<svg xmlns="http://www.w3.org/2000/svg" width="24" height="24" viewBox="0 0 24 24"><path d="m11.169 6.763 3.548 2.761-.015-2.126c.815.026 1.303.384 1.374 1.159.07.774.166 7.145.166 7.145-1.035.355-1.681.961-1.676 2.119.004 1.159 1.078 2.121 2.257 2.127 1.18.005 2.153-1.036 2.176-2.061.023-1.025-.45-1.797-1.547-2.155 0 0-.042-7.056-.276-8.085-.235-1.028-1.414-1.505-2.485-1.533L14.675 4l-3.506 2.763Zm-6.157-.045c.006 1.033.612 1.958 1.664 2.251l-.045 6.702c-1.032.363-1.638.937-1.631 2.211.007 1.274 1.293 2.126 2.311 2.118 1.017-.008 2.098-1 2.112-2.093.014-1.092-.439-1.838-1.557-2.209.014-2.244.012-4.488.024-6.732.794-.251 1.539-1.077 1.548-2.185.009-1.107-1.023-2.122-2.217-2.137-1.194-.015-2.214 1.041-2.209 2.074Zm2.298-.872c.529.016.926.478.925.976-.002.499-.352 1.024-.959 1.023A1.016 1.016 0 0 1 6.24 6.827c-.001-.55.54-.998 1.07-.981Zm.897 12.029c-.018.524-.493.933-.978.93-.486-.002-1.022-.388-1.022-.945.001-.558.415-1.053 1.019-1.055.603-.001 1 .546.981 1.07Zm9.647-.026a.989.989 0 0 1-1.02.989c-.55-.008-1.031-.48-1.022-1.031.01-.551.481-.966 1.052-.966.572 0 .997.426.99 1.008Z"/></svg>
